X: 31334
T: Paddy McLeod's
R: jig
M: 6/8
K: Eminor
|:E3 GFE|EGB efg|fed B/c/dB|AFD FED|
E3 GFE|EGB efg|fed BAF|1 GEE E2B:|2 GEE E2f||
gee e2f|g2a bge|fdd d2e|f2g afd|
gee e2f|g2a bge|fed BAF|GEE E2f|
gee e2f|g2a bge|fdd d2e|f2g afd|
gfe fed|edB cBA|BAG FGA|BGE E3||

